packages/foundations/assets/icons/functional/images/human/stroller_20.svg

<svg width="20" height="20" viewBox="0 0 20 20" fill="none" xmlns="http://www.w3.org/2000/svg">
<g clip-path="url(#clip0_185_1207)">
<path fill-rule="evenodd" clip-rule="evenodd" d="M7.03982 13.9981C8.14439 13.9981 9.03982 14.8935 9.03982 15.9981C9.03982 17.1027 8.14439 17.9981 7.03982 17.9981C5.93525 17.9981 5.03982 17.1027 5.03982 15.9981C5.03982 14.8935 5.93525 13.9981 7.03982 13.9981ZM13.0398 13.9981C14.1444 13.9981 15.0398 14.8935 15.0398 15.9981C15.0398 17.1027 14.1444 17.9981 13.0398 17.9981C11.9353 17.9981 11.0398 17.1027 11.0398 15.9981C11.0398 14.8935 11.9353 13.9981 13.0398 13.9981ZM11.9976 2.0081C14.7031 2.18824 16.8096 4.36061 16.9629 7.01075C16.9735 7.195 16.9747 7.37849 16.9664 7.56372C16.9664 7.60806 16.9635 7.65172 16.9579 7.69453C16.9494 7.99388 16.9262 8.29782 16.8605 8.51918C16.8094 8.67835 16.6278 9.21038 16.4315 9.77722L16.2834 10.2036C16.2344 10.3444 16.1862 10.482 16.1407 10.6113L16.0143 10.9687C15.9378 11.1831 15.8794 11.3428 15.8536 11.4056C15.4781 12.3577 14.5632 12.9873 13.5398 12.9981H6.31919C5.27766 12.9956 4.34788 12.3447 3.98919 11.3668L3.10736 8.37543C2.98818 8.06781 3.02839 7.7212 3.21483 7.44903C3.40128 7.17687 3.70995 7.01417 4.03986 7.01418L5.19614 7.01395L4.66939 6.2206C4.57645 6.0813 4.41996 5.99778 4.25251 5.99809H4.02814C3.47585 5.99809 3.02814 5.55038 3.02814 4.99809C3.02814 4.44581 3.47585 3.99809 4.02814 3.99809H4.25251C5.09117 3.99699 5.87428 4.41731 6.33689 5.11685L7.59414 7.01395H9.74914L10.9233 2.73685C11.0536 2.26289 11.5091 1.95394 11.9976 2.0081ZM14.5684 9.01232L5.53982 9.01308L6.04451 10.6095C6.10977 10.8503 6.29237 11.0141 6.49955 11.0177H13.672C13.883 11.0016 14.0653 10.8315 14.1339 10.5867C14.1774 10.4529 14.3735 9.73906 14.5684 9.01232ZM12.6051 4.16622L11.8231 7.01395L14.9376 7.01355C14.7397 5.1912 13.5588 4.45957 12.6051 4.16622Z" fill="#1A1C1F"/>
</g>
<defs>
<clipPath id="clip0_185_1207">
<rect width="20" height="20" fill="white"/>
</clipPath>
</defs>
</svg>

<svg xmlns="http://www.w3.org/2000/svg" width="20" height="20" fill="none"><g clip-path="url(#a)"><path fill="#1A1C1F" fill-rule="evenodd" d="M7.04 13.998a2 2 0 1 1 0 4 2 2 0 0 1 0-4m6 0a2 2 0 1 1 0 4 2 2 0 0 1 0-4m-1.042-11.99a5.33 5.33 0 0 1 4.96 5.687c-.009.299-.032.603-.098.824-.05.16-.232.691-.428 1.258l-.149.427-.142.407-.127.358a14 14 0 0 1-.16.437 2.52 2.52 0 0 1-2.314 1.592H6.32a2.49 2.49 0 0 1-2.33-1.631l-.883-2.992a1 1 0 0 1 .933-1.36l1.156-.001-.527-.793a.5.5 0 0 0-.416-.223h-.225a1 1 0 1 1 0-2h.225a2.5 2.5 0 0 1 2.084 1.119l1.257 1.897H9.75l1.174-4.277a1 1 0 0 1 1.075-.729m2.57 7.004-9.028.001.505 1.597c.065.24.247.404.455.408h7.172c.211-.016.393-.187.462-.431.043-.134.24-.848.434-1.575m-1.963-4.846-.782 2.848h3.115c-.198-1.823-1.38-2.554-2.333-2.848" clip-rule="evenodd"/></g><defs><clipPath id="a"><path fill="#fff" d="M0 0h20v20H0z"/></clipPath></defs></svg>
